X:262
T:Sukey Bids Me. RH.262
R:reel
S:Rev.R.Harrison’s MS,c1815,Cumbria
O:England
A:Temple Sowerby,Cumbria
Z:vmp.Simon Wilson. Review PJH, 2008.
M:C
L:1/8
Q:1/2=90
K:G
G2DE G2e2|dBAG AFED|G2DE G2e2|dB cA G4:|!
|:d2Bc d2g2|fafd ege^c|\
d2Bc d2g2|fge^c d4|!
dgfe dcBA|B2BG AFED|G2DE G2e2|dBcA G4:|

